assets/bonusesBg7.svg

<svg width="570" height="178" viewBox="0 0 570 178" fill="none" xmlns="http://www.w3.org/2000/svg">
<g clip-path="url(#clip0)">
<rect width="570" height="178" fill="#FF513F"/>
<g style="mix-blend-mode:multiply" opacity="0.28">
<path d="M570.5 82.5L165 0H570.5V82.5V123.5V178H362L570.5 123.5V82.5Z" fill="#FF513F"/>
</g>
<g style="mix-blend-mode:screen" opacity="0.2">
<mask id="mask0" mask-type="alpha" maskUnits="userSpaceOnUse" x="0" y="0" width="570" height="178">
<rect width="570" height="178" fill="#FFC856"/>
</mask>
<g mask="url(#mask0)">
<path d="M525.011 91.2534C523.982 94.2565 522.003 96.4895 519.076 97.9523C516.197 99.3915 512.608 99.7178 508.309 98.9313L506.243 104.956L499.731 102.723L501.721 96.9158C499.07 95.8047 496.656 94.4718 494.48 92.9172C492.316 91.3263 490.624 89.7153 489.405 88.0841L495.649 81.3697C496.965 83.0743 498.626 84.6548 500.634 86.1112C502.642 87.5677 504.731 88.668 506.902 89.4122C511.026 90.8261 513.442 90.5019 514.149 88.4396C514.521 87.3541 514.197 86.3535 513.177 85.4376C512.205 84.498 510.516 83.2922 508.109 81.8203C505.462 80.2254 503.297 78.7555 501.615 77.4107C499.946 76.0297 498.69 74.3256 497.848 72.2985C497.007 70.2714 497.039 67.9372 497.944 65.2959C499.011 62.1843 501.044 59.9095 504.044 58.4714C507.056 56.9971 510.766 56.7323 515.173 57.6769L517.219 51.707L523.732 53.9396L521.723 59.801C523.723 60.6889 525.571 61.7266 527.266 62.9143C528.998 64.1144 530.456 65.4029 531.642 66.7798L525.597 73.6229C522.648 70.4288 519.474 68.2488 516.072 67.0829C513.938 66.3511 512.27 66.1434 511.07 66.4598C509.882 66.74 509.115 67.3867 508.768 68.3997C508.42 69.4128 508.739 70.3711 509.723 71.2745C510.707 72.178 512.391 73.3414 514.773 74.7647C517.457 76.372 519.616 77.86 521.249 79.2286C522.931 80.5734 524.193 82.2594 525.034 84.2865C525.924 86.2899 525.917 88.6122 525.011 91.2534Z" fill="white"/>
<path opacity="0.6" d="M58.9679 134.217C58.1267 136.039 56.7384 137.315 54.8031 138.046C52.8998 138.765 50.6219 138.738 47.9692 137.966L46.2816 141.621L42.3305 139.797L43.9573 136.273C42.3617 135.404 40.9299 134.41 39.662 133.291C38.4042 132.151 37.4444 131.029 36.7827 129.925L41.1426 126.106C41.86 127.263 42.8029 128.364 43.9713 129.409C45.1396 130.455 46.3823 131.282 47.6993 131.89C50.2016 133.045 51.7417 132.997 52.3194 131.746C52.6235 131.088 52.4843 130.437 51.9019 129.796C51.3515 129.142 50.3672 128.275 48.9489 127.194C47.3872 126.02 46.1209 124.956 45.1501 124.002C44.1895 123.025 43.51 121.873 43.1117 120.544C42.7135 119.215 42.8843 117.749 43.6242 116.147C44.4959 114.259 45.9213 112.96 47.9006 112.249C49.8899 111.517 52.2396 111.59 54.9497 112.468L56.6221 108.847L60.5732 110.671L58.9312 114.227C60.1317 114.914 61.2266 115.686 62.216 116.543C63.2273 117.409 64.0613 118.314 64.718 119.256L60.4746 123.169C58.8269 120.97 56.9714 119.394 54.9081 118.441C53.613 117.843 52.5779 117.605 51.8028 117.726C51.0378 117.826 50.5134 118.183 50.2296 118.797C49.9458 119.412 50.0842 120.035 50.6447 120.667C51.2052 121.298 52.1887 122.139 53.5951 123.188C55.1788 124.372 56.44 125.447 57.3787 126.413C58.3495 127.367 59.034 128.509 59.4323 129.838C59.8627 131.155 59.7079 132.615 58.9679 134.217Z" fill="white"/>
<path d="M450.109 85.49C451.587 90.267 451.143 94.9453 448.776 99.5248C446.449 104.029 442.185 107.777 435.984 110.768L438.95 120.351L428.59 123.557L425.731 114.319C421.326 115.367 417.017 115.912 412.804 115.955C408.574 115.939 404.925 115.46 401.859 114.517L403.57 100.176C406.827 101.123 410.409 101.591 414.316 101.581C418.222 101.57 421.902 101.03 425.356 99.9615C431.917 97.931 434.69 95.2754 433.675 91.9948C433.14 90.2682 431.799 89.2959 429.65 89.0779C427.541 88.7845 424.272 88.8186 419.843 89.1802C414.994 89.6089 410.875 89.7484 407.486 89.5989C404.079 89.3918 400.899 88.3893 397.946 86.5913C394.993 84.7932 392.867 81.7935 391.567 77.592C390.035 72.6423 390.51 67.8599 392.992 63.2447C395.456 58.572 399.93 54.7908 406.415 51.9011L403.476 42.4046L413.836 39.1985L416.721 48.5224C420.091 47.7949 423.406 47.3997 426.666 47.3368C429.983 47.2562 433.036 47.5413 435.823 48.1924L434.484 62.5129C427.767 61.1861 421.703 61.3599 416.293 63.0341C412.897 64.085 410.583 65.3689 409.349 66.8858C408.098 68.3451 407.722 69.8806 408.221 71.4921C408.719 73.1036 410.014 74.0273 412.105 74.2631C414.196 74.4989 417.419 74.4161 421.772 74.0148C426.679 73.5684 430.808 73.4576 434.157 73.6825C437.545 73.832 440.716 74.8058 443.669 76.6038C446.662 78.3264 448.808 81.2885 450.109 85.49Z" fill="white"/>
</g>
</g>
</g>
<defs>
<clipPath id="clip0">
<rect width="570" height="178" fill="white"/>
</clipPath>
</defs>
</svg>

<svg xmlns="http://www.w3.org/2000/svg" width="570" height="178" fill="none" xmlns:v="https://vecta.io/nano"><g clip-path="url(#B)"><path fill="#ff513f" d="M0 0h570v178H0z"/><g style="mix-blend-mode:multiply" opacity=".28"><path d="M570.5 82.5L165 0h405.5v178H362l208.5-54.5v-41z" fill="#ff513f"/></g><g style="mix-blend-mode:screen" opacity=".2"><mask id="A" mask-type="alpha" maskUnits="userSpaceOnUse" x="0" y="0" width="570" height="178"><path fill="#ffc856" d="M0 0h570v178H0z"/></mask><g mask="url(#A)" fill="#fff"><path d="M525.01 91.253c-1.03 3.003-3.008 5.236-5.935 6.7-2.88 1.44-6.468 1.766-10.767.98l-2.066 6.025-6.512-2.233 2-5.807c-2.65-1.11-5.065-2.444-7.24-4-2.164-1.59-3.856-3.202-5.075-4.833l6.244-6.714c1.316 1.705 2.977 3.285 4.985 4.742s4.097 2.557 6.268 3.3c4.124 1.414 6.54 1.1 7.247-.973.372-1.085.048-2.086-.972-3.002-.972-.94-2.66-2.145-5.068-3.617-2.647-1.595-4.812-3.065-6.494-4.4a13.01 13.01 0 0 1-3.767-5.112c-.84-2.027-.81-4.36.096-7.003 1.067-3.112 3.1-5.386 6.1-6.824 3.012-1.474 6.722-1.74 11.13-.794l2.046-5.97 6.513 2.233-2.01 5.86a32.87 32.87 0 0 1 5.543 3.113c1.732 1.2 3.2 2.49 4.376 3.865l-6.045 6.843c-2.95-3.194-6.123-5.374-9.525-6.54-2.134-.732-3.802-.94-5.002-.623-1.188.28-1.955.927-2.302 1.94s-.03 1.97.955 2.875 2.668 2.067 5.05 3.5c2.684 1.607 4.843 3.095 6.476 4.464 1.682 1.345 2.944 3.03 3.785 5.058.9 2.003.883 4.326-.023 6.967z"/><path opacity=".6" d="M58.968 134.217c-.84 1.822-2.23 3.098-4.165 3.83-1.903.72-4.18.692-6.834-.08l-1.688 3.655-3.95-1.824 1.627-3.524c-1.596-.87-3.027-1.863-4.295-2.982-1.258-1.14-2.218-2.262-2.88-3.366l4.36-3.82c.717 1.157 1.66 2.258 2.83 3.303s2.41 1.873 3.728 2.48c2.502 1.155 4.042 1.107 4.62-.144.304-.658.165-1.31-.418-1.95-.55-.654-1.535-1.52-2.953-2.602-1.562-1.174-2.828-2.238-3.8-3.192-.96-.977-1.64-2.13-2.038-3.458s-.227-2.795.513-4.397c.872-1.888 2.297-3.187 4.276-3.898 1.99-.732 4.34-.66 7.05.22l1.672-3.62 3.95 1.824-1.642 3.556a20.71 20.71 0 0 1 3.285 2.316c1.01.866 1.845 1.77 2.502 2.713l-4.243 3.913c-1.648-2.2-3.503-3.775-5.567-4.728-1.295-.598-2.33-.836-3.105-.715-.765.1-1.29.457-1.573 1.07s-.145 1.238.415 1.87 1.544 1.472 2.95 2.52c1.584 1.184 2.845 2.26 3.784 3.225a7.9 7.9 0 0 1 2.054 3.425c.43 1.317.276 2.777-.464 4.38z"/><path d="M450.11 85.5c1.478 4.777 1.034 9.455-1.333 14.035-2.327 4.504-6.59 8.252-12.792 11.243l2.966 9.583-10.36 3.206-2.86-9.238c-4.405 1.048-8.714 1.593-12.927 1.636-4.23-.016-7.88-.495-10.945-1.438l1.71-14.34c3.257.947 6.84 1.415 10.746 1.405s7.586-.55 11.04-1.62c6.56-2.03 9.334-4.686 8.32-7.967-.535-1.727-1.876-2.7-4.025-2.917-2.11-.293-5.378-.26-9.807.102-4.85.43-8.968.568-12.357.42-3.407-.207-6.587-1.2-9.54-3.008s-5.08-4.798-6.38-9c-1.532-4.95-1.057-9.732 1.425-14.347 2.464-4.673 6.938-8.454 13.423-11.344l-2.94-9.496 10.36-3.206 2.885 9.324c3.37-.727 6.685-1.123 9.945-1.186 3.317-.08 6.37.205 9.157.856l-1.34 14.32c-6.717-1.327-12.78-1.153-18.19.52-3.396 1.05-5.7 2.335-6.944 3.852-1.25 1.46-1.627 2.995-1.128 4.606s1.793 2.535 3.884 2.77 5.314.153 9.667-.248c4.907-.446 9.036-.557 12.385-.332 3.388.15 6.56 1.123 9.512 2.92 2.993 1.723 5.14 4.685 6.44 8.886z"/></g></g></g><defs><clipPath id="B"><path fill="#fff" d="M0 0h570v178H0z"/></clipPath></defs></svg>
